X:1498
T:Irish Music Club, The
R:reel
N:"collected from Cronin"
B:"O'Neill's Dance Music of Ireland, 1498"
T: an t-aos ceoil-eirinnai.g.
Z:transcribed by John B. Walsh, walsh@math.ubc.ca 8/22/96
M:C|
L:1/8
K:D
(dB)|AFDE FEFG|A^GAB cBcA|defd cAGF|DG{A}GF GABG|
AFDE FEFG|A^GAB cBcA|defg abag|fdec d2||
A2|defg abaf|defg abaf|dg2f gagf|dggf g2 fg|
agfe defd|cAGF GABc|defd cAGF|Addc d2||


